X:6
T:No.26 The Green Fields Of Glentown
C:reel
M:4/4
L:1/8
K:C
EA,3EDB,D|G,B, (3B,B,B, DG,B,D|EA,3EEDE|
GBeB dBAB|eB (3BBB eBdB|AE3DCB,G,|
A,E (3EEE A,ED^F|GEDB, CA,A,2:|A2EA cAGE|
GEDB, G,A,B,D|EA (3AAA EABd|edBe aged|
bggg abge|dB (3BBB AEDB,|A,E (3EEE A,ED^F|
GEDB, CA,A,2:|A2EA cAEA|aged bage|
dG (3GGG DGBd|gedc Bdgd|e2Ae gedB|
AE3DCB,G,|A,E (3EEE A,ED^F|GEDB, CA,A,2:|
